img/image/design/phone.svg

<svg xmlns="http://www.w3.org/2000/svg" fill="none" viewBox="0.25 0.62 17.98 14.95">
<path d="M17.825 12.4431L15.0482 10.1288C14.4951 9.6697 13.5791 9.68364 13.0067 10.1608L11.6077 11.3264C11.5193 11.2858 11.4279 11.2434 11.3317 11.1984C10.4482 10.7905 9.23906 10.2313 7.96667 9.17025C6.69051 8.10691 6.01896 7.09773 5.52795 6.36104C5.47614 6.283 5.42649 6.20775 5.37747 6.13629L6.3164 5.355L6.77802 4.96985C7.35127 4.49201 7.36708 3.72894 6.81527 3.26854L4.03839 0.953959C3.48658 0.494203 2.57022 0.50815 1.99697 0.985987L1.21435 1.64191L1.23574 1.65961C0.973315 1.93865 0.754027 2.26048 0.590839 2.60753C0.440411 2.93788 0.346755 3.25313 0.303931 3.56902C-0.0627376 6.10215 1.32635 8.41725 5.09614 11.5588C10.3071 15.901 14.5065 15.573 14.6877 15.5569C15.0822 15.5176 15.4604 15.4391 15.8447 15.3147C16.2575 15.1803 16.6435 14.9978 16.9781 14.7796L16.9952 14.7923L17.788 14.1453C18.3601 13.6676 18.3766 12.9042 17.825 12.4431Z" fill="#F6BB1A"/>
</svg>

<svg xmlns="http://www.w3.org/2000/svg" fill="none" viewBox="0.25 0.62 17.98 14.95"><path d="m17.825 12.443-2.777-2.314c-.553-.46-1.469-.445-2.041.032l-1.4 1.165-.275-.128c-.884-.408-2.093-.967-3.365-2.028C6.69 8.107 6.019 7.098 5.528 6.361l-.15-.225.938-.781.462-.385c.573-.478.59-1.241.037-1.701L4.038.954C3.487.494 2.57.508 1.997.986l-.783.656.022.018c-.263.279-.482.6-.645.948-.15.33-.244.645-.287.961-.367 2.533 1.022 4.848 4.792 7.99 5.211 4.342 9.41 4.014 9.592 3.998a5.47 5.47 0 0 0 1.157-.242 4.815 4.815 0 0 0 1.133-.535l.017.012.793-.647c.572-.477.589-1.24.037-1.702Z" fill="#F6BB1A"/></svg>
